X: 41142
T: Trip We Took Over The Mountain, The
R: waltz
M: 3/4
K: Gmajor
D2 G2 GA|B2 G2 GB|A2 A^G A2|f3 gab|
g2 d2 de|d3 cAF|G3 BAG|F3 AGF|
D2 G3A|B3G GB|A2 A^G A2|f3 gab|
g2 d2 de|d3 cAF|G3A G2|1 G4GE:|2 G4 gf||
g2 d2 g2|g3 bag|f2 d3e|f3 gab|
g2 d2 de|d3 cAF|G3 BAG|F3 gga|
g2 d2 g2|g3 bag|f2 d2 de|f3 gab|
g2 d2 de|d3 cAF|G3A G2|G3 ggf||
g2 d2 g2|g3 bag|f2 d3e|f2 g2 ab|
g3 dde|d3 cAF|G3 BAG|F3 AGF|
D2 G3A|B2 G3B|A3^G A2|f3 gab|
g2 d3e|d3c A2|G3A G2|G6||

